packages/components/bolt-icons/src/svgs/pega/pega-loading.svg

<svg viewBox="0 0 32 32" xmlns="http://www.w3.org/2000/svg"><path fill="#fff" d="m16 7.56a1 1 0 0 1 -1-1v-5.56a1 1 0 1 1 2 0v5.56a1 1 0 0 1 -1 1z"/><path fill="#fff" d="m16 32a1 1 0 0 1 -1-1v-2.77a1 1 0 0 1 2 0v2.77a1 1 0 0 1 -1 1z"/><path fill="#fff" d="m5.36 17h-4.36a1 1 0 0 1 0-2h4.36a1 1 0 0 1 0 2z"/><path fill="#fff" d="m31 17h-.67a1 1 0 0 1 0-2h.67a1 1 0 0 1 0 2z"/><path fill="#fff" d="m11 8.33a1 1 0 0 1 -.87-.5l-2.5-4.33a1 1 0 0 1 1.74-1l2.49 4.33a1 1 0 0 1 -.36 1.36 1 1 0 0 1 -.5.14z"/><path fill="#fff" d="m23.5 30a1 1 0 0 1 -.87-.5l-1.1-1.92a1 1 0 1 1 1.73-1l1.11 1.92a1 1 0 0 1 -.87 1.5z"/><path fill="#fff" d="m3 24.5a1 1 0 0 1 -.87-.5 1 1 0 0 1 .37-1.36l3.41-2a1 1 0 0 1 1.38.36 1 1 0 0 1 -.37 1.37l-3.41 2a1 1 0 0 1 -.51.13z"/><path fill="#fff" d="m28.77 9.62a1 1 0 0 1 -.49-1.87l.22-.12a1 1 0 0 1 1.36.37 1 1 0 0 1 -.37 1.37l-.22.12a1 1 0 0 1 -.5.13z"/><path fill="#fff" d="m7 11.77a1 1 0 0 1 -.49-.13l-4-2.28a1 1 0 1 1 1-1.73l4 2.28a1 1 0 0 1 -.51 1.86z"/><path fill="#fff" d="m29 24.5a1 1 0 0 1 -.5-.13l-1.5-.86a1 1 0 1 1 1-1.73l1.49.86a1 1 0 0 1 .37 1.36 1 1 0 0 1 -.86.5z"/><path fill="#fff" d="m8.5 30a1 1 0 0 1 -.87-1.5l1.91-3.3a1 1 0 0 1 1.73 1l-1.9 3.3a1 1 0 0 1 -.87.5z"/></svg>

<svg id="icon-loading" data-name="loading" xmlns="http://www.w3.org/2000/svg" viewBox="0 0 32 32"><path d="M16,7.56a1,1,0,0,1-1-1V1a1,1,0,1,1,2,0V6.56A1,1,0,0,1,16,7.56Z"/><path d="M16,32a1,1,0,0,1-1-1V28.23a1,1,0,0,1,2,0V31A1,1,0,0,1,16,32Z"/><path d="M5.36,17H1a1,1,0,0,1,0-2H5.36a1,1,0,0,1,0,2Z"/><path d="M31,17h-.67a1,1,0,0,1,0-2H31a1,1,0,0,1,0,2Z"/><path d="M11,8.33a1,1,0,0,1-.87-.5L7.63,3.5a1,1,0,0,1,1.74-1l2.49,4.33a1,1,0,0,1-.36,1.36A1,1,0,0,1,11,8.33Z"/><path d="M23.5,30a1,1,0,0,1-.87-.5l-1.1-1.92a1,1,0,1,1,1.73-1l1.11,1.92A1,1,0,0,1,23.5,30Z"/><path d="M3,24.5a1,1,0,0,1-.87-.5,1,1,0,0,1,.37-1.36l3.41-2A1,1,0,0,1,7.29,21a1,1,0,0,1-.37,1.37l-3.41,2A1,1,0,0,1,3,24.5Z"/><path d="M28.77,9.62a1,1,0,0,1-.49-1.87l.22-.12A1,1,0,0,1,29.86,8a1,1,0,0,1-.37,1.37l-.22.12A1,1,0,0,1,28.77,9.62Z"/><path d="M7,11.77a1,1,0,0,1-.49-.13L2.51,9.36a1,1,0,1,1,1-1.73l4,2.28A1,1,0,0,1,7,11.77Z"/><path d="M29,24.5a1,1,0,0,1-.5-.13L27,23.51a1,1,0,1,1,1-1.73l1.49.86A1,1,0,0,1,29.86,24,1,1,0,0,1,29,24.5Z"/><path d="M8.5,30a1,1,0,0,1-.87-1.5l1.91-3.3a1,1,0,0,1,1.73,1l-1.9,3.3A1,1,0,0,1,8.5,30Z"/></svg>
